tipitek/img/Activity.svg

<svg width="32" height="32" viewBox="0 0 32 32" fill="none" xmlns="http://www.w3.org/2000/svg">
<path fill-rule="evenodd" clip-rule="evenodd" d="M19.8601 3.78943C20.4121 3.78943 20.8601 4.23743 20.8601 4.78943C20.8601 5.34143 20.4121 5.78943 19.8601 5.78943H10.1694C6.8254 5.78943 4.66406 8.08809 4.66406 11.6481V22.4241C4.66406 26.0308 6.7734 28.2708 10.1694 28.2708H21.6414C24.9854 28.2708 27.1467 25.9761 27.1467 22.4241V13.0388C27.1467 12.4868 27.5947 12.0388 28.1467 12.0388C28.6987 12.0388 29.1467 12.4868 29.1467 13.0388V22.4241C29.1467 27.1174 26.1307 30.2708 21.6414 30.2708H10.1694C5.68006 30.2708 2.66406 27.1174 2.66406 22.4241V11.6481C2.66406 6.94809 5.68006 3.78943 10.1694 3.78943H19.8601ZM22.6806 12.8958C23.1179 13.2345 23.1979 13.8625 22.8593 14.2985L18.9526 19.3385C18.7899 19.5492 18.5499 19.6865 18.2859 19.7185C18.0193 19.7545 17.7553 19.6772 17.5446 19.5132L13.7873 16.5612L10.4126 20.9465C10.2153 21.2025 9.91926 21.3372 9.61926 21.3372C9.40593 21.3372 9.19126 21.2692 9.00993 21.1305C8.5726 20.7932 8.48993 20.1652 8.82726 19.7278L12.8179 14.5412C12.9806 14.3292 13.2219 14.1918 13.4859 14.1585C13.7553 14.1238 14.0193 14.1985 14.2286 14.3652L17.9886 17.3185L21.2779 13.0745C21.6166 12.6358 22.2433 12.5545 22.6806 12.8958ZM26.6206 2.66663C28.5859 2.66663 30.1833 4.26396 30.1833 6.22929C30.1833 8.19463 28.5859 9.79329 26.6206 9.79329C24.6566 9.79329 23.0579 8.19463 23.0579 6.22929C23.0579 4.26396 24.6566 2.66663 26.6206 2.66663ZM26.6206 4.66663C25.7593 4.66663 25.0579 5.36663 25.0579 6.22929C25.0579 7.09063 25.7593 7.79329 26.6206 7.79329C27.4819 7.79329 28.1833 7.09063 28.1833 6.22929C28.1833 5.36663 27.4819 4.66663 26.6206 4.66663Z" fill="#30CBFF"/>
</svg>

<svg width="32" height="32" fill="none" xmlns="http://www.w3.org/2000/svg"><path fill-rule="evenodd" clip-rule="evenodd" d="M19.86 3.79a1 1 0 0 1 0 2h-9.69c-3.345 0-5.506 2.298-5.506 5.858v10.776c0 3.607 2.11 5.847 5.505 5.847h11.472c3.344 0 5.506-2.295 5.506-5.847V13.04a1 1 0 0 1 2 0v9.385c0 4.693-3.016 7.847-7.506 7.847H10.17c-4.489 0-7.505-3.154-7.505-7.847V11.648c0-4.7 3.016-7.859 7.505-7.859h9.691zm2.82 9.106a.999.999 0 0 1 .18 1.402l-3.907 5.04a.994.994 0 0 1-.667.38.989.989 0 0 1-.741-.205l-3.758-2.952-3.374 4.386a1 1 0 1 1-1.586-1.22l3.99-5.186a1 1 0 0 1 1.412-.176l3.76 2.954 3.289-4.244a.995.995 0 0 1 1.403-.18zm3.94-10.23a3.566 3.566 0 0 1 3.563 3.563 3.567 3.567 0 0 1-3.562 3.564 3.568 3.568 0 0 1-3.563-3.564 3.566 3.566 0 0 1 3.563-3.562zm0 2a1.564 1.564 0 0 0 0 3.127 1.564 1.564 0 0 0 0-3.127z" fill="#30CBFF"/></svg>
